tools/download-figma-icons/icons/outlined-large/care.svg

<svg width="64" height="64" viewBox="0 0 64 64" fill="none" xmlns="http://www.w3.org/2000/svg">
<path fill-rule="evenodd" clip-rule="evenodd" d="M28.3386 5.99638C26.4646 5.99638 24.5846 6.70437 23.1486 8.11837C21.7616 9.48536 20.9986 11.2924 21.0006 13.2063C21.0026 15.0813 21.7416 16.8403 23.0836 18.1573L35.5116 30.3923L47.9195 18.1703C49.2605 16.8473 49.9995 15.0833 49.9995 13.2013C49.9995 11.2864 49.2375 9.48136 47.8545 8.11837C45.0045 5.31238 40.4005 5.28538 37.5876 8.05637L36.5536 9.07437C35.9696 9.65036 35.0326 9.65036 34.4486 9.07437L33.4146 8.05637C32.0196 6.68137 30.1826 5.99638 28.3386 5.99638ZM35.5116 33.9983C35.1316 33.9983 34.7516 33.8543 34.4606 33.5673L20.9796 20.2973C19.0606 18.4123 18.0026 15.8943 18.0006 13.2093C17.9986 10.4834 19.0786 7.91737 21.0436 5.98138C25.0466 2.03539 31.5246 2.00439 35.5016 5.90038C39.4746 2.00439 45.9555 2.03639 49.9605 5.98138C51.9195 7.91237 52.9995 10.4764 52.9995 13.2013C52.9995 15.8923 51.9435 18.4163 50.0245 20.3063L36.5646 33.5663C36.2726 33.8543 35.8916 33.9983 35.5116 33.9983ZM59.8728 47.2437C60.3538 47.0097 60.7138 46.6027 60.8888 46.0977C61.0628 45.5917 61.0298 45.0487 60.7948 44.5687C60.3138 43.5767 59.1138 43.1617 58.1188 43.6467L45.3978 49.8367C45.3685 49.8514 45.3387 49.8612 45.3088 49.871C45.2919 49.8766 45.2748 49.8822 45.2578 49.8887C44.6598 50.1957 43.9988 50.3837 43.2928 50.4267C43.1958 50.4467 43.0938 50.4567 42.9908 50.4567H24.1589C23.3299 50.4567 22.6589 49.7857 22.6589 48.9567C22.6589 48.1287 23.3299 47.4567 24.1589 47.4567H42.9908C44.0938 47.4567 44.9918 46.5597 44.9918 45.4567C44.9918 44.3547 44.0938 43.4567 42.9908 43.4567C42.986 43.4567 42.9813 43.456 42.9766 43.4553C42.9716 43.4545 42.9665 43.4537 42.9608 43.4537H29.2489C28.5709 43.4537 27.9769 42.9977 27.7999 42.3427C27.7409 42.1387 26.1509 36.9978 17.6649 36.9978H2.99999V51.9047L31.8769 60.8907L59.8728 47.2437ZM60.6258 40.7167C61.8888 41.1527 62.9078 42.0537 63.4928 43.2537C64.0768 44.4537 64.1598 45.8117 63.7248 47.0757C63.2888 48.3377 62.3888 49.3567 61.1878 49.9417L32.6569 63.8487C32.6297 63.8613 32.6021 63.8699 32.5744 63.8786C32.5582 63.8837 32.5421 63.8888 32.5259 63.8947C32.4889 63.9097 32.4529 63.9227 32.4149 63.9337C32.2779 63.9737 32.1389 63.9997 31.9999 63.9997H31.9989C31.9975 63.9997 31.9961 63.9992 31.9946 63.9988C31.9929 63.9982 31.991 63.9977 31.9889 63.9977C31.8479 63.9967 31.7079 63.9757 31.5749 63.9357C31.5679 63.9337 31.5609 63.9347 31.5539 63.9327L1.055 54.4417C0.426998 54.2457 0 53.6657 0 53.0087V35.4978C0 34.6698 0.671997 33.9978 1.49999 33.9978H17.6649C26.0839 33.9978 29.2279 38.3458 30.2579 40.4537H42.9908C43.0998 40.4537 43.2038 40.4667 43.3068 40.4887C45.8448 40.6507 47.8638 42.6977 47.9708 45.2487L56.8058 40.9497C58.0058 40.3637 59.3638 40.2837 60.6258 40.7167Z" fill="black"/>
</svg>

<svg width="64" height="64" viewBox="0 0 64 64" fill="none" xmlns="http://www.w3.org/2000/svg"><path fill-rule="evenodd" clip-rule="evenodd" d="M28.339 5.996a7.381 7.381 0 0 0-5.19 2.122c-1.387 1.367-2.15 3.174-2.148 5.088a6.898 6.898 0 0 0 2.083 4.951l12.428 12.235L47.919 18.17A6.93 6.93 0 0 0 50 13.201c0-1.915-.762-3.72-2.145-5.083-2.85-2.806-7.453-2.833-10.266-.062l-1.034 1.018a1.498 1.498 0 0 1-2.105 0l-1.034-1.018a7.202 7.202 0 0 0-5.076-2.06Zm7.173 28.002c-.38 0-.76-.144-1.051-.43L20.98 20.297A9.876 9.876 0 0 1 18 13.208c0-2.725 1.08-5.291 3.045-7.227 4.003-3.946 10.48-3.977 14.458-.08 3.973-3.897 10.453-3.865 14.459.08C51.921 7.912 53 10.476 53 13.201a9.9 9.9 0 0 1-2.974 7.105l-13.46 13.26a1.496 1.496 0 0 1-1.053.432Zm24.36 13.246a1.99 1.99 0 0 0 1.017-1.146 2 2 0 0 0-2.77-2.451l-12.721 6.19a.634.634 0 0 1-.09.034l-.05.018a4.939 4.939 0 0 1-1.965.538c-.097.02-.2.03-.302.03H24.159a1.5 1.5 0 1 1 0-3H42.99a2.003 2.003 0 0 0 2-2 2.004 2.004 0 0 0-2.014-2.002.097.097 0 0 0-.016-.001H29.249a1.502 1.502 0 0 1-1.45-1.111c-.058-.204-1.648-5.345-10.134-5.345H3v14.907l28.877 8.986 27.996-13.647Zm.754-6.527a4.974 4.974 0 0 1 2.867 2.537c.584 1.2.667 2.558.232 3.822a4.972 4.972 0 0 1-2.537 2.866L32.657 63.849c-.027.012-.055.02-.083.03l-.048.016A1.486 1.486 0 0 1 32 64h-.001l-.004-.001a1.477 1.477 0 0 1-.42-.063l-.021-.003-30.499-9.491A1.5 1.5 0 0 1 0 53.009V35.498a1.5 1.5 0 0 1 1.5-1.5h16.165c8.419 0 11.563 4.348 12.593 6.456H42.99a1.5 1.5 0 0 1 .316.035 4.982 4.982 0 0 1 4.664 4.76l8.835-4.3a4.974 4.974 0 0 1 3.82-.232Z" fill="currentColor"/></svg>
